X:1
T:Partition sans titre
C:Compositeur / Arrangeur
L:1/8
M:4/4
I:linebreak $
K:G
V:1 treble nm="Violon" snm="Vln."
V:1
"G" G2 GD EDB,D | GFGB d2 Bd |"C" eged"G" BAGA |1 BAGE EDDE :|2 BAGE ED D2 |:"C" eaag efge | %6
"G" dBBA B2 Bd |"C" eB PB2"G" gBfB | eBBA B2 Bd |"C" eaag efge |"G" dBBA B2 Bd |"C" eged"G" BAGA |1 %12
 BAGE ED D2 :|2 BAGE EDDE |] %14
